X:2005
T:Bielbie's Hornpipe
R:Hornpipe
C:Trad.
O:England, Northumberland
Z:Paul Hardy's Session Tunebook 2015 (see www.paulhardy.net). Creative Commons cc by-nc-sa licenced.
M:4/4
L:1/8
Q:1/4=140
K:G
D2|"G"GABc dgfa|g2B2 d3z/B/|"Am"ceAB c2c2|"G"BdGA BcBA|
"G"GABc dgfa|g2B2 d3z/B/|"Am"ceAB cBcA|1 "G"G2B2G2:|2 "G"G2B2 GABc|:
"G"d2b2 "D7"c2a2|"G"B2gf gdBG|"D"FGAB cAFD|"G"GFGA BABc|
"G"d2b2 "D7"c2a2|"G"B2gf gdBG|"D"FGAB cAFA|1 "G"AGGF GABc:|2 "G"AGGF G3|]

